X: 16192
T: Green Room, The
R: reel
M: 4/4
K: Bdorian
|F|:AGFE FFFA|Bcde fBfa|gabg fdBf|ecBA BAFE|
DEFA BFBc|dAde fffe|defe dBAF|1 AAAG BdcF:|2 DEFA B3c||
|:dAde fagb|agfe fdAF|DEFA dAeA|fedc dAFA|
dAde fagb|agfe fdAG|FEDE FFFA|1 BdcA B3c:|2 BdcA B4||

